report_00007_2020-12-11T15:55:29.892Z/network-rtt/comparison/line/11_vs_12.svg

<svg width="640" height="500" xmlns="http://www.w3.org/2000/svg" xmlns:xlink="http://www.w3.org/1999/xlink"><path fill="#fff" d="M0 0h640v500H0z"/><defs><path id="d" stroke-width=".222" stroke="currentColor" d="M-1-1h2v2h-2z"/><path id="b" stroke-width=".222" stroke="currentColor" d="M0-1.33l-1.33 2h2.66z"/><path id="f" stroke-width=".222" stroke="currentColor" d="M0 1.33L1.265.411.782-1.067l-1.564-.009-.483 1.487z"/><use xlink:href="#b" id="c" stroke="currentColor" transform="rotate(180)"/><use xlink:href="#d" id="e" stroke="currentColor" transform="rotate(45)"/><circle id="a" stroke-width=".222" stroke="currentColor" cx="0" cy="0" r="1"/></defs><g fill="none" color="#000" stroke="currentColor"><path stroke="#000" d="M62.2 400.9h9m543.8 0h-9"/><text transform="translate(53.9 404.8)" stroke="none" fill="#000" font-family="Arial" font-size="12" text-anchor="end"><tspan>0.03</tspan></text></g><g fill="none" color="#000" stroke="currentColor"><path stroke="#000" d="M62.2 338.9h9m543.8 0h-9"/><text transform="translate(53.9 342.8)" stroke="none" fill="#000" font-family="Arial" font-size="12" text-anchor="end"><tspan>0.04</tspan></text></g><g fill="none" color="#000" stroke="currentColor"><path stroke="#000" d="M62.2 277h9m543.8 0h-9"/><text transform="translate(53.9 280.9)" stroke="none" fill="#000" font-family="Arial" font-size="12" text-anchor="end"><tspan>0.05</tspan></text></g><g fill="none" color="#000" stroke="currentColor"><path stroke="#000" d="M62.2 215h9m543.8 0h-9"/><text transform="translate(53.9 218.9)" stroke="none" fill="#000" font-family="Arial" font-size="12" text-anchor="end"><tspan>0.06</tspan></text></g><g fill="none" color="#000" stroke="currentColor"><path stroke="#000" d="M62.2 153h9m543.8 0h-9"/><text transform="translate(53.9 156.9)" stroke="none" fill="#000" font-family="Arial" font-size="12" text-anchor="end"><tspan>0.07</tspan></text></g><g fill="none" color="#000" stroke="currentColor"><path stroke="#000" d="M62.2 91.1h9m543.8 0h-9"/><text transform="translate(53.9 95)" stroke="none" fill="#000" font-family="Arial" font-size="12" text-anchor="end"><tspan>0.08</tspan></text></g><g fill="none" color="#000" stroke="currentColor"><path stroke="#000" d="M62.2 29.1h9m543.8 0h-9"/><text transform="translate(53.9 33)" stroke="none" fill="#000" font-family="Arial" font-size="12" text-anchor="end"><tspan>0.09</tspan></text></g><g fill="none" color="#000" stroke="currentColor"><path stroke="#000" d="M62.2 428v-9m0-400.9v9"/><text transform="translate(62.2 449.9)" stroke="none" fill="#000" font-family="Arial" font-size="12" text-anchor="middle"><tspan>0</tspan></text></g><g fill="none" color="#000" stroke="currentColor"><path stroke="#000" d="M118 428v-9m0-400.9v9"/><text transform="translate(118 449.9)" stroke="none" fill="#000" font-family="Arial" font-size="12" text-anchor="middle"><tspan>10</tspan></text></g><g fill="none" color="#000" stroke="currentColor"><path stroke="#000" d="M173.9 428v-9m0-400.9v9"/><text transform="translate(173.9 449.9)" stroke="none" fill="#000" font-family="Arial" font-size="12" text-anchor="middle"><tspan>20</tspan></text></g><g fill="none" color="#000" stroke="currentColor"><path stroke="#000" d="M229.7 428v-9m0-400.9v9"/><text transform="translate(229.7 449.9)" stroke="none" fill="#000" font-family="Arial" font-size="12" text-anchor="middle"><tspan>30</tspan></text></g><g fill="none" color="#000" stroke="currentColor"><path stroke="#000" d="M285.6 428v-9m0-400.9v9"/><text transform="translate(285.6 449.9)" stroke="none" fill="#000" font-family="Arial" font-size="12" text-anchor="middle"><tspan>40</tspan></text></g><g fill="none" color="#000" stroke="currentColor"><path stroke="#000" d="M341.4 428v-9m0-400.9v9"/><text transform="translate(341.4 449.9)" stroke="none" fill="#000" font-family="Arial" font-size="12" text-anchor="middle"><tspan>50</tspan></text></g><g fill="none" color="#000" stroke="currentColor"><path stroke="#000" d="M397.2 428v-9m0-400.9v9"/><text transform="translate(397.2 449.9)" stroke="none" fill="#000" font-family="Arial" font-size="12" text-anchor="middle"><tspan>60</tspan></text></g><g fill="none" color="#000" stroke="currentColor"><path stroke="#000" d="M453.1 428v-9m0-400.9v9"/><text transform="translate(453.1 449.9)" stroke="none" fill="#000" font-family="Arial" font-size="12" text-anchor="middle"><tspan>70</tspan></text></g><g fill="none" color="#000" stroke="currentColor"><path stroke="#000" d="M508.9 428v-9m0-400.9v9"/><text transform="translate(508.9 449.9)" stroke="none" fill="#000" font-family="Arial" font-size="12" text-anchor="middle"><tspan>80</tspan></text></g><g fill="none" color="#000" stroke="currentColor"><path stroke="#000" d="M564.7 428v-9m0-400.9v9"/><text transform="translate(564.7 449.9)" stroke="none" fill="#000" font-family="Arial" font-size="12" text-anchor="middle"><tspan>90</tspan></text></g><path stroke="#000" d="M62.2 18.1V428H615V18.1H62.2z" fill="none" color="#000"/><text transform="translate(512.5 467.9)" stroke="none" fill="#000" font-family="Arial" font-size="12" text-anchor="end" color="#000"><tspan>pages+cached+noexternal+nofonts+nosvg+noimg</tspan></text><path stroke="#9400D3" d="M520.8 464H563M62.2 118.3l5.6 78.1 5.6 58.3 5.6-27.3 5.5-136.3 5.6 30.3 5.6 81.2 5.6 33.5 5.6-91.8 5.6 67 5.5 63.2 5.6-134.5 5.6 1.2 5.6 6.2 5.6.7 5.6-69.4 5.5 162.3 5.6-159.9 5.6 83.7 5.6-63.8 5.6 125.8 5.6-67 5.5 120.3 5.6-64.5 5.6-96 5.6 88.6 5.6 55.8L213 96l5.5 20.5 5.6-28.5 5.6 114 5.6-74.4 5.6-14.9 5.6 12.4 5.6 132.7 5.5-21.7 5.6-125.2 5.6 20.4 5.6 23L280 26l5.6 275.1 5.5-55.7 5.6-68.2 5.6 21.7 5.6-107.8 5.6-15.5 5.6 174.7 5.5-150.6 5.6 172.3 5.6-6.2 5.6-75.6 5.6 97.9 5.6-98.5 5.5 24.2 5.6 50.8 5.6-136.4 5.6 44.7 5.6-27.9 5.6 53.9 5.5-1.9 5.6 18 5.6 66.3 5.6-151.2 5.6-87.4 5.6 179.7 5.5 24.2 5.6-52.7 5.6 85.5 5.6-76.8 5.6-64.5 5.6 23.6 5.6 121.5 5.5-121.5 5.6 3.7 5.6 130.8 5.6-154.3 5.6-5.6 5.6 91.1 5.5-71.3 5.6 35.3 5.6-53.3 5.6 99.2 5.6-116.5 5.6 205.7 5.5-78 5.6 47.1 5.6-155L548 30.9l5.6 160.5 5.6-37.1 5.5 27.2 5.6-7.4 5.6 116.5 5.6-34.7 5.6 23.5 5.6-2.4 5.5-193.4 5.6 26.7 5.6 81.1 5.6-48.9" fill="none" color="#000"/><text transform="translate(512.5 485.9)" stroke="none" fill="#000" font-family="Arial" font-size="12" text-anchor="end" color="#000"><tspan>pages+cached+noexternal+nofonts+nosvg+noimg+nocss</tspan></text><path stroke="#009E73" d="M520.8 482H563M62.2 177.2l5.6 75 5.6-178.5L79 96l5.5 117.8 5.6-69.5 5.6 89.9 5.6-93 5.6 81.9 5.6 53.9L118 75.6l5.6 99.1 5.6-22.9 5.6 122.1 5.6 19.8L146 53.9l5.5 145.6 5.6-31 5.6-4.9 5.6-44.7 5.6 11.2 5.6 70.6 5.5-63.2 5.6 85.6 5.6 39.6 5.6-110.9 5.6 78.7 5.6 19.2 5.5-113.4 5.6 128.3 5.6-99.8 5.6 53.3 5.6-47.7 5.6 81.8 5.6-112.2 5.5 91.7 5.6-35.3 5.6-14.9 5.6 77.5 5.6-138.8 5.6 101 5.5 39.7 5.6-45.3 5.6-9.3 5.6-24.8 5.6-16.1 5.6-1.2 5.5-99.8 5.6 25.4 5.6 330.3 5.6-338.3 5.6-18.6 5.6 191.5 5.5-100.4 5.6 74.9 5.6-34 5.6-40.3 5.6 148.1 5.6-151.2 5.5-104.1 5.6 96 5.6 131.4 5.6-144.4L414 264l5.6-179.1 5.5 110.9 5.6 62.6 5.6-106 5.6 147.5 5.6-120.2 5.6-49 5.6 151.2 5.5-103.5 5.6 123.4 5.6-159.9 5.6 127.6 5.6-127 5.6-3.7 5.5 58.8 5.6 39.7 5.6-47.1 5.6-19.8 5.6-49 5.6-22.3 5.5-3.1 5.6 204.5 5.6-16.7 5.6-75.6 5.6 44 5.6-60.8 5.5-138.2 5.6 151.9 5.6-23.6 5.6 106 5.6-62.6 5.6-64.4 5.5-23.6 5.6 19.8 5.6 42.2 5.6-37.2" fill="none" color="#000"/><g fill="none" color="#000" stroke="currentColor"><path stroke="#000" d="M62.2 18.1V428H615V18.1H62.2z"/></g></svg>

<?xml version="1.0" encoding="utf-8"  standalone="no"?>
<svg 
 width="640" height="500"
 viewBox="0 0 640 500"
 xmlns="http://www.w3.org/2000/svg"
 xmlns:xlink="http://www.w3.org/1999/xlink"
>

<title>Gnuplot</title>
<desc>Produced by GNUPLOT 5.4 patchlevel 0 </desc>

<g id="gnuplot_canvas">

<rect x="0" y="0" width="640" height="500" fill="#ffffff"/>
<defs>

	<circle id='gpDot' r='0.5' stroke-width='0.5' stroke='currentColor'/>
	<path id='gpPt0' stroke-width='0.222' stroke='currentColor' d='M-1,0 h2 M0,-1 v2'/>
	<path id='gpPt1' stroke-width='0.222' stroke='currentColor' d='M-1,-1 L1,1 M1,-1 L-1,1'/>
	<path id='gpPt2' stroke-width='0.222' stroke='currentColor' d='M-1,0 L1,0 M0,-1 L0,1 M-1,-1 L1,1 M-1,1 L1,-1'/>
	<rect id='gpPt3' stroke-width='0.222' stroke='currentColor' x='-1' y='-1' width='2' height='2'/>
	<rect id='gpPt4' stroke-width='0.222' stroke='currentColor' fill='currentColor' x='-1' y='-1' width='2' height='2'/>
	<circle id='gpPt5' stroke-width='0.222' stroke='currentColor' cx='0' cy='0' r='1'/>
	<use xlink:href='#gpPt5' id='gpPt6' fill='currentColor' stroke='none'/>
	<path id='gpPt7' stroke-width='0.222' stroke='currentColor' d='M0,-1.33 L-1.33,0.67 L1.33,0.67 z'/>
	<use xlink:href='#gpPt7' id='gpPt8' fill='currentColor' stroke='none'/>
	<use xlink:href='#gpPt7' id='gpPt9' stroke='currentColor' transform='rotate(180)'/>
	<use xlink:href='#gpPt9' id='gpPt10' fill='currentColor' stroke='none'/>
	<use xlink:href='#gpPt3' id='gpPt11' stroke='currentColor' transform='rotate(45)'/>
	<use xlink:href='#gpPt11' id='gpPt12' fill='currentColor' stroke='none'/>
	<path id='gpPt13' stroke-width='0.222' stroke='currentColor' d='M0,1.330 L1.265,0.411 L0.782,-1.067 L-0.782,-1.076 L-1.265,0.411 z'/>
	<use xlink:href='#gpPt13' id='gpPt14' fill='currentColor' stroke='none'/>
	<filter id='textbox' filterUnits='objectBoundingBox' x='0' y='0' height='1' width='1'>
	  <feFlood flood-color='#FFFFFF' flood-opacity='1' result='bgnd'/>
	  <feComposite in='SourceGraphic' in2='bgnd' operator='atop'/>
	</filter>
	<filter id='greybox' filterUnits='objectBoundingBox' x='0' y='0' height='1' width='1'>
	  <feFlood flood-color='lightgrey' flood-opacity='1' result='grey'/>
	  <feComposite in='SourceGraphic' in2='grey' operator='atop'/>
	</filter>
</defs>
<g fill="none" color="#FFFFFF" stroke="black" stroke-width="1.00" stroke-linecap="butt" stroke-linejoin="miter">
</g>
<g fill="none" color="black" stroke="currentColor" stroke-width="1.00" stroke-linecap="butt" stroke-linejoin="miter">
	<path stroke='black'  d='M62.2,400.9 L71.2,400.9 M615.0,400.9 L606.0,400.9  '/>	<g transform="translate(53.9,404.8)" stroke="none" fill="black" font-family="Arial" font-size="12.00"  text-anchor="end">
		<text><tspan font-family="Arial" > 0.03</tspan></text>
	</g>
</g>
<g fill="none" color="black" stroke="currentColor" stroke-width="1.00" stroke-linecap="butt" stroke-linejoin="miter">
	<path stroke='black'  d='M62.2,338.9 L71.2,338.9 M615.0,338.9 L606.0,338.9  '/>	<g transform="translate(53.9,342.8)" stroke="none" fill="black" font-family="Arial" font-size="12.00"  text-anchor="end">
		<text><tspan font-family="Arial" > 0.04</tspan></text>
	</g>
</g>
<g fill="none" color="black" stroke="currentColor" stroke-width="1.00" stroke-linecap="butt" stroke-linejoin="miter">
	<path stroke='black'  d='M62.2,277.0 L71.2,277.0 M615.0,277.0 L606.0,277.0  '/>	<g transform="translate(53.9,280.9)" stroke="none" fill="black" font-family="Arial" font-size="12.00"  text-anchor="end">
		<text><tspan font-family="Arial" > 0.05</tspan></text>
	</g>
</g>
<g fill="none" color="black" stroke="currentColor" stroke-width="1.00" stroke-linecap="butt" stroke-linejoin="miter">
	<path stroke='black'  d='M62.2,215.0 L71.2,215.0 M615.0,215.0 L606.0,215.0  '/>	<g transform="translate(53.9,218.9)" stroke="none" fill="black" font-family="Arial" font-size="12.00"  text-anchor="end">
		<text><tspan font-family="Arial" > 0.06</tspan></text>
	</g>
</g>
<g fill="none" color="black" stroke="currentColor" stroke-width="1.00" stroke-linecap="butt" stroke-linejoin="miter">
	<path stroke='black'  d='M62.2,153.0 L71.2,153.0 M615.0,153.0 L606.0,153.0  '/>	<g transform="translate(53.9,156.9)" stroke="none" fill="black" font-family="Arial" font-size="12.00"  text-anchor="end">
		<text><tspan font-family="Arial" > 0.07</tspan></text>
	</g>
</g>
<g fill="none" color="black" stroke="currentColor" stroke-width="1.00" stroke-linecap="butt" stroke-linejoin="miter">
	<path stroke='black'  d='M62.2,91.1 L71.2,91.1 M615.0,91.1 L606.0,91.1  '/>	<g transform="translate(53.9,95.0)" stroke="none" fill="black" font-family="Arial" font-size="12.00"  text-anchor="end">
		<text><tspan font-family="Arial" > 0.08</tspan></text>
	</g>
</g>
<g fill="none" color="black" stroke="currentColor" stroke-width="1.00" stroke-linecap="butt" stroke-linejoin="miter">
	<path stroke='black'  d='M62.2,29.1 L71.2,29.1 M615.0,29.1 L606.0,29.1  '/>	<g transform="translate(53.9,33.0)" stroke="none" fill="black" font-family="Arial" font-size="12.00"  text-anchor="end">
		<text><tspan font-family="Arial" > 0.09</tspan></text>
	</g>
</g>
<g fill="none" color="black" stroke="currentColor" stroke-width="1.00" stroke-linecap="butt" stroke-linejoin="miter">
	<path stroke='black'  d='M62.2,428.0 L62.2,419.0 M62.2,18.1 L62.2,27.1  '/>	<g transform="translate(62.2,449.9)" stroke="none" fill="black" font-family="Arial" font-size="12.00"  text-anchor="middle">
		<text><tspan font-family="Arial" > 0</tspan></text>
	</g>
</g>
<g fill="none" color="black" stroke="currentColor" stroke-width="1.00" stroke-linecap="butt" stroke-linejoin="miter">
	<path stroke='black'  d='M118.0,428.0 L118.0,419.0 M118.0,18.1 L118.0,27.1  '/>	<g transform="translate(118.0,449.9)" stroke="none" fill="black" font-family="Arial" font-size="12.00"  text-anchor="middle">
		<text><tspan font-family="Arial" > 10</tspan></text>
	</g>
</g>
<g fill="none" color="black" stroke="currentColor" stroke-width="1.00" stroke-linecap="butt" stroke-linejoin="miter">
	<path stroke='black'  d='M173.9,428.0 L173.9,419.0 M173.9,18.1 L173.9,27.1  '/>	<g transform="translate(173.9,449.9)" stroke="none" fill="black" font-family="Arial" font-size="12.00"  text-anchor="middle">
		<text><tspan font-family="Arial" > 20</tspan></text>
	</g>
</g>
<g fill="none" color="black" stroke="currentColor" stroke-width="1.00" stroke-linecap="butt" stroke-linejoin="miter">
	<path stroke='black'  d='M229.7,428.0 L229.7,419.0 M229.7,18.1 L229.7,27.1  '/>	<g transform="translate(229.7,449.9)" stroke="none" fill="black" font-family="Arial" font-size="12.00"  text-anchor="middle">
		<text><tspan font-family="Arial" > 30</tspan></text>
	</g>
</g>
<g fill="none" color="black" stroke="currentColor" stroke-width="1.00" stroke-linecap="butt" stroke-linejoin="miter">
	<path stroke='black'  d='M285.6,428.0 L285.6,419.0 M285.6,18.1 L285.6,27.1  '/>	<g transform="translate(285.6,449.9)" stroke="none" fill="black" font-family="Arial" font-size="12.00"  text-anchor="middle">
		<text><tspan font-family="Arial" > 40</tspan></text>
	</g>
</g>
<g fill="none" color="black" stroke="currentColor" stroke-width="1.00" stroke-linecap="butt" stroke-linejoin="miter">
	<path stroke='black'  d='M341.4,428.0 L341.4,419.0 M341.4,18.1 L341.4,27.1  '/>	<g transform="translate(341.4,449.9)" stroke="none" fill="black" font-family="Arial" font-size="12.00"  text-anchor="middle">
		<text><tspan font-family="Arial" > 50</tspan></text>
	</g>
</g>
<g fill="none" color="black" stroke="currentColor" stroke-width="1.00" stroke-linecap="butt" stroke-linejoin="miter">
	<path stroke='black'  d='M397.2,428.0 L397.2,419.0 M397.2,18.1 L397.2,27.1  '/>	<g transform="translate(397.2,449.9)" stroke="none" fill="black" font-family="Arial" font-size="12.00"  text-anchor="middle">
		<text><tspan font-family="Arial" > 60</tspan></text>
	</g>
</g>
<g fill="none" color="black" stroke="currentColor" stroke-width="1.00" stroke-linecap="butt" stroke-linejoin="miter">
	<path stroke='black'  d='M453.1,428.0 L453.1,419.0 M453.1,18.1 L453.1,27.1  '/>	<g transform="translate(453.1,449.9)" stroke="none" fill="black" font-family="Arial" font-size="12.00"  text-anchor="middle">
		<text><tspan font-family="Arial" > 70</tspan></text>
	</g>
</g>
<g fill="none" color="black" stroke="currentColor" stroke-width="1.00" stroke-linecap="butt" stroke-linejoin="miter">
	<path stroke='black'  d='M508.9,428.0 L508.9,419.0 M508.9,18.1 L508.9,27.1  '/>	<g transform="translate(508.9,449.9)" stroke="none" fill="black" font-family="Arial" font-size="12.00"  text-anchor="middle">
		<text><tspan font-family="Arial" > 80</tspan></text>
	</g>
</g>
<g fill="none" color="black" stroke="currentColor" stroke-width="1.00" stroke-linecap="butt" stroke-linejoin="miter">
	<path stroke='black'  d='M564.7,428.0 L564.7,419.0 M564.7,18.1 L564.7,27.1  '/>	<g transform="translate(564.7,449.9)" stroke="none" fill="black" font-family="Arial" font-size="12.00"  text-anchor="middle">
		<text><tspan font-family="Arial" > 90</tspan></text>
	</g>
</g>
<g fill="none" color="black" stroke="currentColor" stroke-width="1.00" stroke-linecap="butt" stroke-linejoin="miter">
</g>
<g fill="none" color="black" stroke="currentColor" stroke-width="1.00" stroke-linecap="butt" stroke-linejoin="miter">
	<path stroke='black'  d='M62.2,18.1 L62.2,428.0 L615.0,428.0 L615.0,18.1 L62.2,18.1 Z  '/></g>
<g fill="none" color="black" stroke="currentColor" stroke-width="1.00" stroke-linecap="butt" stroke-linejoin="miter">
</g>
	<g id="gnuplot_plot_1" ><title>pages+cached+noexternal+nofonts+nosvg+noimg</title>
<g fill="none" color="black" stroke="currentColor" stroke-width="1.00" stroke-linecap="butt" stroke-linejoin="miter">
	<g transform="translate(512.5,467.9)" stroke="none" fill="black" font-family="Arial" font-size="12.00"  text-anchor="end">
		<text><tspan font-family="Arial" >pages+cached+noexternal+nofonts+nosvg+noimg</tspan></text>
	</g>
</g>
<g fill="none" color="black" stroke="currentColor" stroke-width="1.00" stroke-linecap="butt" stroke-linejoin="miter">
	<path stroke='rgb(148,   0, 211)'  d='M520.8,464.0 L563.0,464.0 M62.2,118.3 L67.8,196.4 L73.4,254.7 L79.0,227.4 L84.5,91.1 L90.1,121.4
		L95.7,202.6 L101.3,236.1 L106.9,144.3 L112.5,211.3 L118.0,274.5 L123.6,140.0 L129.2,141.2 L134.8,147.4
		L140.4,148.1 L146.0,78.7 L151.5,241.0 L157.1,81.1 L162.7,164.8 L168.3,101.0 L173.9,226.8 L179.5,159.8
		L185.0,280.1 L190.6,215.6 L196.2,119.6 L201.8,208.2 L207.4,264.0 L213.0,96.0 L218.5,116.5 L224.1,88.0
		L229.7,202.0 L235.3,127.6 L240.9,112.7 L246.5,125.1 L252.1,257.8 L257.6,236.1 L263.2,110.9 L268.8,131.3
		L274.4,154.3 L280.0,26.0 L285.6,301.1 L291.1,245.4 L296.7,177.2 L302.3,198.9 L307.9,91.1 L313.5,75.6
		L319.1,250.3 L324.6,99.7 L330.2,272.0 L335.8,265.8 L341.4,190.2 L347.0,288.1 L352.6,189.6 L358.1,213.8
		L363.7,264.6 L369.3,128.2 L374.9,172.9 L380.5,145.0 L386.1,198.9 L391.6,197.0 L397.2,215.0 L402.8,281.3
		L408.4,130.1 L414.0,42.7 L419.6,222.4 L425.1,246.6 L430.7,193.9 L436.3,279.4 L441.9,202.6 L447.5,138.1
		L453.1,161.7 L458.7,283.2 L464.2,161.7 L469.8,165.4 L475.4,296.2 L481.0,141.9 L486.6,136.3 L492.2,227.4
		L497.7,156.1 L503.3,191.4 L508.9,138.1 L514.5,237.3 L520.1,120.8 L525.7,326.5 L531.2,248.5 L536.8,295.6
		L542.4,140.6 L548.0,30.9 L553.6,191.4 L559.2,154.3 L564.7,181.5 L570.3,174.1 L575.9,290.6 L581.5,255.9
		L587.1,279.4 L592.7,277.0 L598.2,83.6 L603.8,110.3 L609.4,191.4 L615.0,142.5  '/></g>
	</g>
	<g id="gnuplot_plot_2" ><title>pages+cached+noexternal+nofonts+nosvg+noimg+nocss</title>
<g fill="none" color="black" stroke="currentColor" stroke-width="1.00" stroke-linecap="butt" stroke-linejoin="miter">
	<g transform="translate(512.5,485.9)" stroke="none" fill="black" font-family="Arial" font-size="12.00"  text-anchor="end">
		<text><tspan font-family="Arial" >pages+cached+noexternal+nofonts+nosvg+noimg+nocss</tspan></text>
	</g>
</g>
<g fill="none" color="black" stroke="currentColor" stroke-width="1.00" stroke-linecap="butt" stroke-linejoin="miter">
	<path stroke='rgb(  0, 158, 115)'  d='M520.8,482.0 L563.0,482.0 M62.2,177.2 L67.8,252.2 L73.4,73.7 L79.0,96.0 L84.5,213.8 L90.1,144.3
		L95.7,234.2 L101.3,141.2 L106.9,223.1 L112.5,277.0 L118.0,75.6 L123.6,174.7 L129.2,151.8 L134.8,273.9
		L140.4,293.7 L146.0,53.9 L151.5,199.5 L157.1,168.5 L162.7,163.6 L168.3,118.9 L173.9,130.1 L179.5,200.7
		L185.0,137.5 L190.6,223.1 L196.2,262.7 L201.8,151.8 L207.4,230.5 L213.0,249.7 L218.5,136.3 L224.1,264.6
		L229.7,164.8 L235.3,218.1 L240.9,170.4 L246.5,252.2 L252.1,140.0 L257.6,231.7 L263.2,196.4 L268.8,181.5
		L274.4,259.0 L280.0,120.2 L285.6,221.2 L291.1,260.9 L296.7,215.6 L302.3,206.3 L307.9,181.5 L313.5,165.4
		L319.1,164.2 L324.6,64.4 L330.2,89.8 L335.8,420.1 L341.4,81.8 L347.0,63.2 L352.6,254.7 L358.1,154.3
		L363.7,229.2 L369.3,195.2 L374.9,154.9 L380.5,303.0 L386.1,151.8 L391.6,47.7 L397.2,143.7 L402.8,275.1
		L408.4,130.7 L414.0,264.0 L419.6,84.9 L425.1,195.8 L430.7,258.4 L436.3,152.4 L441.9,299.9 L447.5,179.7
		L453.1,130.7 L458.7,281.9 L464.2,178.4 L469.8,301.8 L475.4,141.9 L481.0,269.5 L486.6,142.5 L492.2,138.8
		L497.7,197.6 L503.3,237.3 L508.9,190.2 L514.5,170.4 L520.1,121.4 L525.7,99.1 L531.2,96.0 L536.8,300.5
		L542.4,283.8 L548.0,208.2 L553.6,252.2 L559.2,191.4 L564.7,53.2 L570.3,205.1 L575.9,181.5 L581.5,287.5
		L587.1,224.9 L592.7,160.5 L598.2,136.9 L603.8,156.7 L609.4,198.9 L615.0,161.7  '/></g>
	</g>
<g fill="none" color="#FFFFFF" stroke="rgb(  0, 158, 115)" stroke-width="2.00" stroke-linecap="butt" stroke-linejoin="miter">
</g>
<g fill="none" color="black" stroke="currentColor" stroke-width="2.00" stroke-linecap="butt" stroke-linejoin="miter">
</g>
<g fill="none" color="black" stroke="black" stroke-width="1.00" stroke-linecap="butt" stroke-linejoin="miter">
</g>
<g fill="none" color="black" stroke="currentColor" stroke-width="1.00" stroke-linecap="butt" stroke-linejoin="miter">
	<path stroke='black'  d='M62.2,18.1 L62.2,428.0 L615.0,428.0 L615.0,18.1 L62.2,18.1 Z  '/></g>
<g fill="none" color="black" stroke="currentColor" stroke-width="1.00" stroke-linecap="butt" stroke-linejoin="miter">
</g>
</g>
</svg>
